wp-content/plugins/google-analytics-for-wordpress/lite/assets/vue/img/yir-icon-pen.svg

<svg width="32" height="32" viewBox="0 0 32 32" fill="none" xmlns="http://www.w3.org/2000/svg">
    <path fill-rule="evenodd" clip-rule="evenodd" d="M23.5449 4C23.2116 4 22.8649 4.13333 22.6116 4.38667L20.1716 6.82667L25.1716 11.8267L27.6116 9.38667C28.1316 8.86667 28.1316 8.02667 27.6116 7.50667L24.4916 4.38667C24.2249 4.12 23.8916 4 23.5449 4ZM18.745 12.0267L19.9716 13.2533L7.89162 25.3333H6.66496V24.1067L18.745 12.0267ZM3.99829 23L18.745 8.25331L23.745 13.2533L8.99829 28H3.99829V23Z" fill="#6F4BBB"/>
</svg>

<svg width="32" height="32" fill="none" xmlns="http://www.w3.org/2000/svg"><path fill-rule="evenodd" clip-rule="evenodd" d="M23.545 4c-.333 0-.68.133-.933.387l-2.44 2.44 5 5 2.44-2.44c.52-.52.52-1.36 0-1.88l-3.12-3.12A1.31 1.31 0 0023.545 4zm-4.8 8.027l1.227 1.226-12.08 12.08H6.665v-1.226l12.08-12.08zM3.998 23L18.745 8.253l5 5L8.998 28h-5v-5z" fill="#6F4BBB"/></svg>
